X: 230
T: A Jig For Bernie
R: jig
M: 6/8
K: Amajor
~A3 ABc|e2 c cBc|~A3 Ace|~f2 e e2 a|
~A3 Ace|fec efg|a2 c' baf|1 efe c2 B:|2 efe c2 e||
|:~f3 fec|efg a2 g|~f3 fec|~B2 A Bce|
~f3 fec|efg ae/f/g|a2 c' f2 a|1 efe c2 e:|2 efe c2 B||

